X:365
T:Purlongs,The. (p)1696.PLFD.365
M:3/2
L:1/8
Q:1/2=80
S:Playford, Dancing Master,9th Ed,1st Supp.,1696.
O:England
H:1696.
Z:Chris Partington
K:D
d4A2de (fe)(dc)|B2G4A2F2A2|F2GA (BA)(GF)E2D2|FGA2A2F2A4:|
|:B2G4B2(Bc)d2|e4E2e2(ef)g2|f3e (de)(fg)a2gf|e2B2(ef)(ed)c2A2|
(AF)(AF) (BG)(BG) (cB)(cA)|(dc)(dB) (ef)g2(ga)b2|\
a4A2a2A2=c2|B2e2A2c2d4:|
